X:57
%
% From O'Neill's Music of Ireland, No. 221
%
T:The Humors of the Joyce Country
C:Traditional
L:1/8
M:3/4
Q:1/4=70
K:G treble
(Bd) | e4 (e/f/g) | d4 (BA) | G2 G2 DE | G2 G2 DE | 
(GAG EDE) | G2 G2 (DE) | A2 A2 GA | B2 B2 AG |
(AGA BAG) | E2 D2 (BA) | (G6 | G6) ||
(Bd) | e4 (e/f/g) | d4 (de) | (gag ede) | (gag ede) |
(gag ede) | g2 g2 (EG) | A2 A2 (GA) | B2 B2 AG |
(AGA BAG) | E2 D2 (G/A/B) | (G6 | G6) ||


